frontend/src/assets/Board_Coin/Default/yellow-default-king.svg

<svg width="26" height="25" viewBox="0 0 26 25" fill="none" xmlns="http://www.w3.org/2000/svg">
<g clip-path="url(#clip0_1189_5245)">
<g opacity="0.69">
<path d="M12.9326 25C19.8362 25 25.4326 19.4036 25.4326 12.5C25.4326 5.59644 19.8362 0 12.9326 0C6.02906 0 0.432617 5.59644 0.432617 12.5C0.432617 19.4036 6.02906 25 12.9326 25Z" fill="#FFD015"/>
<path d="M12.9325 23.1097C18.7921 23.1097 23.5422 18.3596 23.5422 12.5C23.5422 6.6404 18.7921 1.89026 12.9325 1.89026C7.07289 1.89026 2.32275 6.6404 2.32275 12.5C2.32275 18.3596 7.07289 23.1097 12.9325 23.1097Z" fill="#FFC501"/>
<path d="M18.4825 3.44489C19.5391 5.09303 20.1526 7.05483 20.1526 9.15972C20.1526 15.0176 15.4036 19.7694 9.54291 19.7694C7.50681 19.7694 5.60829 19.1971 3.99316 18.2039C5.87793 21.1479 9.17696 23.0987 12.9327 23.0987C18.7907 23.0987 23.5425 18.3497 23.5425 12.489C23.5425 8.66445 21.5174 5.31314 18.4852 3.44764L18.4825 3.44489Z" fill="#F5B611"/>
<path d="M4.18294 13.4713C4.18294 8.29851 8.37621 4.10525 13.549 4.10525C16.5729 4.10525 19.2611 5.53877 20.9725 7.76197C19.3546 4.95546 16.3252 3.06519 12.8529 3.06519C7.68008 3.06519 3.48682 7.25845 3.48682 12.4312C3.48682 14.5802 4.21046 16.5585 5.42937 18.1406C4.63694 16.7676 4.18569 15.1717 4.18569 13.4741L4.18294 13.4713Z" fill="#FFD453"/>
</g>
</g>
<path d="M19.8144 9.83925C19.3344 10.1507 19.1295 10.6351 18.9653 11.1557C18.7711 11.7659 18.5791 12.374 18.3487 12.9714C18.0158 13.8291 17.779 14.6974 17.8878 15.6298C17.9347 16.0501 17.8217 16.2507 17.3352 16.2464C14.4015 16.2272 11.47 16.2315 8.53627 16.2443C8.12662 16.2443 7.94526 16.1248 7.98367 15.696C8.15862 13.7949 7.1217 12.1969 6.65444 10.458C6.5947 10.234 6.37707 10.1913 6.25759 10.0419C5.98663 9.70483 5.96316 9.36132 6.26826 9.04555C6.53709 8.76605 6.8742 8.70204 7.20064 8.94314C7.54202 9.1949 7.63589 9.52774 7.42253 9.91605C7.1409 10.4324 7.39053 11.1109 8.02634 11.5675C8.59601 11.9771 8.99072 11.6784 9.3449 11.241C9.76735 10.7162 10.0106 10.0995 10.2623 9.48294C10.3498 9.26958 10.3157 9.13303 10.1877 8.9538C9.9231 8.58043 9.94871 8.20491 10.3264 7.91688C10.6443 7.67365 10.9814 7.70779 11.2587 7.99156C11.5894 8.3308 11.5852 8.70204 11.2438 9.02848C11.088 9.17783 10.9792 9.28665 11.0859 9.51921C11.3974 10.1892 11.6961 10.8676 12.238 11.3904C12.7629 11.896 13.1491 11.8896 13.6228 11.3626C14.1092 10.8207 14.3332 10.1379 14.6021 9.47867C14.7066 9.2205 14.5018 9.13943 14.3802 8.99648C14.1028 8.6679 14.0964 8.31159 14.393 8.00009C14.6618 7.71632 14.9989 7.66725 15.3254 7.90621C15.7051 8.18571 15.7969 8.57403 15.4918 8.92607C15.2635 9.19063 15.3211 9.39973 15.4278 9.64509C15.6923 10.2553 15.9548 10.8698 16.4199 11.3605C16.9384 11.9067 17.4461 11.9494 17.939 11.3925C18.3252 10.9572 19.0506 10.5711 18.4041 9.7667C18.1886 9.49787 18.3785 9.14369 18.6772 8.94314C19.168 8.61243 19.4987 8.91327 19.8187 9.24824V9.83925H19.8144ZM14.9797 9.87765C14.7109 10.379 14.4847 10.8996 14.1732 11.3648C13.4414 12.4529 12.5581 12.4764 11.7089 11.4736C11.2929 10.9829 11.0091 10.4004 10.6976 9.78377C9.23182 12.374 9.16141 12.423 7.62736 11.9707C7.82792 12.5404 8.04554 13.1015 8.22263 13.6754C8.31864 13.9869 8.47866 14.1 8.80297 14.0979C11.5638 14.0872 14.3204 14.0915 17.0813 14.0915C17.2776 14.0915 17.5016 14.1214 17.5763 13.8739C17.7641 13.2338 18.1076 12.6364 18.1524 11.9174C16.7229 12.5404 16.4007 12.327 14.984 9.87765H14.9797ZM12.9229 15.7856C14.2522 15.7856 15.5835 15.76 16.9127 15.7984C17.4291 15.8133 17.4632 15.5765 17.4461 15.1818C17.4312 14.8276 17.4931 14.531 16.9384 14.5374C14.2778 14.5652 11.6172 14.5652 8.95659 14.5374C8.44239 14.531 8.42746 14.7614 8.41679 15.154C8.40612 15.5935 8.47226 15.8154 9.00353 15.7984C10.3071 15.7578 11.615 15.7856 12.9208 15.7856H12.9229Z" fill="#16120B"/>
<path d="M14.9816 9.87336C16.3962 12.3227 16.7205 12.5361 18.15 11.9131C18.1052 12.6321 17.7617 13.2316 17.5739 13.8696C17.5014 14.1171 17.2752 14.0872 17.0789 14.0872C14.3181 14.0872 11.5615 14.0829 8.80061 14.0936C8.4763 14.0936 8.31628 13.9827 8.22027 13.6712C8.04318 13.0972 7.82556 12.5361 7.625 11.9664C9.15905 12.4187 9.22946 12.3697 10.6952 9.77948C11.0067 10.3982 11.2905 10.9764 11.7066 11.4693C12.5557 12.4721 13.439 12.4486 14.1709 11.3605C14.4845 10.8953 14.7107 10.3726 14.9774 9.87336H14.9816Z" fill="#F5D336"/>
<path d="M12.9227 15.7813C11.6169 15.7813 10.309 15.7536 9.00538 15.7941C8.47625 15.8112 8.41011 15.5914 8.41864 15.1498C8.42717 14.755 8.44211 14.5268 8.95844 14.5332C11.619 14.5609 14.2796 14.5609 16.9402 14.5332C17.4949 14.5268 17.4331 14.8212 17.448 15.1775C17.4651 15.5722 17.4309 15.809 16.9146 15.7941C15.5854 15.7557 14.254 15.7813 12.9248 15.7813H12.9227Z" fill="#FBAC3A"/>
<defs>
<clipPath id="clip0_1189_5245">
<rect width="25" height="25" fill="white" transform="translate(0.432617)"/>
</clipPath>
</defs>
</svg>

<svg width="26" height="25" fill="none" xmlns="http://www.w3.org/2000/svg"><g opacity=".69" clip-path="url(#a)"><path d="M12.933 25c6.903 0 12.5-5.596 12.5-12.5S19.836 0 12.933 0C6.029 0 .433 5.596.433 12.5S6.029 25 12.933 25z" fill="#FFD015"/><path d="M12.932 23.11c5.86 0 10.61-4.75 10.61-10.61 0-5.86-4.75-10.61-10.61-10.61-5.86 0-10.61 4.75-10.61 10.61 0 5.86 4.75 10.61 10.61 10.61z" fill="#FFC501"/><path d="M18.483 3.445a10.555 10.555 0 0 1 1.67 5.715c0 5.858-4.75 10.61-10.61 10.61-2.036 0-3.935-.573-5.55-1.566a10.598 10.598 0 0 0 8.94 4.895c5.858 0 10.61-4.75 10.61-10.61 0-3.825-2.026-7.176-5.058-9.041l-.002-.003z" fill="#F5B611"/><path d="M4.183 13.471a9.366 9.366 0 0 1 16.79-5.709A9.366 9.366 0 1 0 5.43 18.141a9.31 9.31 0 0 1-1.244-4.667l-.003-.003z" fill="#FFD453"/></g><path d="M19.814 9.84c-.48.31-.684.795-.849 1.316-.194.61-.386 1.218-.616 1.815-.333.858-.57 1.726-.461 2.659.047.42-.066.62-.553.616-2.934-.019-5.865-.014-8.799-.002-.41 0-.59-.12-.552-.548.175-1.901-.862-3.5-1.33-5.238-.06-.224-.277-.267-.396-.416-.271-.337-.295-.68.01-.996.27-.28.606-.344.933-.103.341.252.435.585.222.973-.282.516-.032 1.195.603 1.652.57.41.965.11 1.319-.327.422-.525.666-1.141.917-1.758.088-.213.054-.35-.074-.53-.265-.373-.24-.748.138-1.036.318-.243.655-.21.933.075.33.339.326.71-.015 1.036-.156.15-.265.259-.158.491.311.67.61 1.349 1.152 1.871.525.506.911.5 1.385-.027.486-.542.71-1.225.98-1.884.104-.258-.101-.34-.223-.483-.277-.328-.284-.684.013-.996.269-.284.606-.333.932-.094.38.28.472.668.167 1.02-.229.265-.17.474-.064.72.264.61.527 1.224.992 1.714.518.547 1.026.59 1.519.033.386-.436 1.112-.822.465-1.626-.215-.27-.026-.623.273-.824.491-.33.822-.03 1.142.305v.591h-.005zm-4.834.038c-.27.501-.495 1.022-.807 1.487-.732 1.088-1.615 1.111-2.464.109-.416-.491-.7-1.074-1.011-1.69-1.466 2.59-1.537 2.639-3.07 2.187.2.57.418 1.13.595 1.704.096.312.256.425.58.423 2.76-.01 5.517-.007 8.278-.007.197 0 .42.03.495-.217.188-.64.532-1.238.576-1.957-1.43.623-1.751.41-3.168-2.04h-.004zm-2.057 5.908c1.33 0 2.66-.026 3.99.012.516.015.55-.222.533-.616-.015-.354.047-.651-.508-.645-2.66.028-5.32.028-7.981 0-.515-.006-.53.224-.54.617-.01.44.055.661.587.644 1.303-.04 2.611-.012 3.917-.012h.002z" fill="#16120B"/><path d="M14.982 9.873c1.414 2.45 1.739 2.663 3.168 2.04-.045.72-.388 1.319-.576 1.957-.073.247-.299.217-.495.217-2.76 0-5.518-.004-8.278.007-.325 0-.485-.111-.58-.423-.178-.574-.395-1.135-.596-1.705 1.534.453 1.604.404 3.07-2.187.312.62.595 1.197 1.012 1.69.849 1.003 1.732.98 2.464-.108.314-.466.54-.988.806-1.488h.005z" fill="#F5D336"/><path d="M12.923 15.781c-1.306 0-2.614-.027-3.918.013-.529.017-.595-.203-.586-.644.008-.395.023-.623.54-.617 2.66.028 5.32.028 7.981 0 .555-.006.493.288.508.645.017.394-.017.631-.533.616-1.33-.038-2.661-.013-3.99-.013h-.002z" fill="#FBAC3A"/><defs><clipPath id="a"><path fill="#fff" transform="translate(.433)" d="M0 0h25v25H0z"/></clipPath></defs></svg>
